src/images/svg/symbols/silver-eur.svg

<svg xmlns="http://www.w3.org/2000/svg" width="32" height="32"><g transform="translate(2 2)" fill-rule="nonzero" fill="none"><circle cx="9" cy="9" r="9" fill="#DFDFDF"/><path fill="#F8F8F8" d="M14.738 2.066a9.04 9.04 0 0 0-1.251-.87l-12.29 12.29c.254.443.545.861.87 1.252l12.67-12.672zM4.344 16.703a8.99 8.99 0 0 1-1.775-1.407L15.296 2.569a8.99 8.99 0 0 1 1.407 1.775l-12.36 12.36zm2.629 1.067a8.806 8.806 0 0 1-.828-.232L17.538 6.145c.09.27.168.547.233.828L6.973 17.77z"/><g transform="translate(1 1)"><circle cx="8" cy="8" r="7.313" fill="#D1D1D1"/><path fill="#C4C4C4" d="M8 15.313A7.312 7.312 0 0 0 15.312 8c0-1.24-.308-2.407-.852-3.43a14.53 14.53 0 0 0-9.89 9.89 7.283 7.283 0 0 0 3.43.853z"/></g><path fill="#ADADAD" d="M14.444 4.118A7.313 7.313 0 0 0 4.118 14.444 7.292 7.292 0 0 1 1.688 9a7.311 7.311 0 0 1 12.756-4.882z"/><path fill="#283991" d="M10 19a9 9 0 1 1 18.001.001A9 9 0 0 1 10 19z"/><path fill="#F8D12E" d="m19.204 12.236-.219-.676-.22.676h-.71l.575.418-.22.675.575-.418.574.418-.219-.675.575-.418zm0 12.754-.219-.676-.22.676h-.71l.575.417-.22.676.575-.417.574.417-.219-.676.575-.417zm3.281-12.299.219.676h.711l-.575.417.219.676-.574-.418-.575.418.22-.676-.575-.417h.71zm2.607 3.032-.219-.676-.22.676h-.71l.575.417-.22.676.575-.418.575.418-.22-.676.575-.417zM24.93 21l.219.676h.711l-.575.417.22.676-.575-.418-.575.418.22-.676-.575-.417h.71zm-11.528-5.277-.219-.676-.22.676h-.71l.575.417-.22.676.575-.418.574.418-.219-.676.575-.417zm12.024 2.163.22.675h.71l-.574.418.219.676-.575-.418-.574.418.219-.676-.575-.418h.711zm-12.567.675-.219-.675-.219.675h-.711l.575.418-.22.676.575-.418.575.418-.22-.676.575-.418zM13.106 21l.219.676h.711l-.575.417.219.676-.574-.418-.575.418.22-.676-.575-.417h.71zm9.701 3.132-.219-.676-.22.676h-.71l.575.418-.22.675.575-.417.575.417-.22-.675.575-.418zm-7.209-11.441.219.676h.711l-.575.417.22.676-.575-.418-.575.418.22-.676-.575-.417h.71zm-.04 11.398-.219-.676-.22.676h-.71l.574.417-.219.676.575-.417.574.417-.219-.676.575-.417z"/></g></svg>

<svg xmlns="http://www.w3.org/2000/svg" width="32" height="32" viewBox="0 0 32 32">
    <g fill="none" fill-rule="evenodd">
        <g fill-rule="nonzero">
            <g>
                <g>
                    <g>
                        <g>
                            <g>
                                <g transform="translate(-478.000000, -1940.000000) translate(0.000000, 1273.000000) translate(324.000000, 498.000000) translate(0.000000, 48.000000) translate(154.000000, 25.000000) translate(0.000000, 96.000000) translate(2.000000, 2.000000)">
                                    <circle cx="9" cy="9" r="9" fill="#DFDFDF"/>
                                    <path fill="#F8F8F8" d="M14.738 2.066c-.39-.324-.81-.615-1.251-.87l-12.29 12.29c.254.443.545.861.87 1.252L14.737 2.066zM4.344 16.703c-.65-.393-1.247-.867-1.775-1.407L15.296 2.569c.54.528 1.014 1.125 1.407 1.775l-12.36 12.36zM6.973 17.77c-.281-.064-.558-.142-.828-.232L17.538 6.145c.09.27.168.547.233.828L6.973 17.77z"/>
                                    <g transform="translate(1.000000, 1.000000)">
                                        <circle cx="8" cy="8" r="7.313" fill="#D1D1D1"/>
                                        <path fill="#C4C4C4" d="M8 15.313c4.039 0 7.312-3.274 7.312-7.313 0-1.24-.308-2.407-.852-3.43C9.7 5.948 5.948 9.7 4.57 14.46c1.023.544 2.19.853 3.43.853z"/>
                                    </g>
                                    <path fill="#ADADAD" d="M14.444 4.118C13.15 2.957 11.44 2.25 9.562 2.25c-4.038 0-7.312 3.274-7.312 7.313 0 1.876.707 3.587 1.868 4.881-1.492-1.338-2.43-3.282-2.43-5.444C1.688 4.961 4.96 1.687 9 1.687c2.162 0 4.106.94 5.444 2.431z"/>
                                    <path fill="#283991" d="M10 19c0-4.97 4.03-9 9-9s9 4.03 9 9-4.03 9-9 9-9-4.03-9-9z"/>
                                    <path fill="#F8D12E" d="M19.204 12.236L18.985 11.56 18.765 12.236 18.055 12.236 18.63 12.654 18.41 13.329 18.985 12.911 19.559 13.329 19.34 12.654 19.915 12.236zM19.204 24.99L18.985 24.314 18.765 24.99 18.055 24.99 18.63 25.407 18.41 26.083 18.985 25.666 19.559 26.083 19.34 25.407 19.915 24.99zM22.485 12.691L22.704 13.367 23.415 13.367 22.84 13.784 23.059 14.46 22.485 14.042 21.91 14.46 22.13 13.784 21.555 13.367 22.265 13.367zM25.092 15.723L24.873 15.047 24.653 15.723 23.943 15.723 24.518 16.14 24.298 16.816 24.873 16.398 25.448 16.816 25.228 16.14 25.803 15.723zM24.93 21L25.149 21.676 25.86 21.676 25.285 22.093 25.505 22.769 24.93 22.351 24.355 22.769 24.575 22.093 24 21.676 24.71 21.676zM13.402 15.723L13.183 15.047 12.963 15.723 12.253 15.723 12.828 16.14 12.608 16.816 13.183 16.398 13.757 16.816 13.538 16.14 14.113 15.723zM25.426 17.886L25.646 18.561 26.356 18.561 25.782 18.979 26.001 19.655 25.426 19.237 24.852 19.655 25.071 18.979 24.496 18.561 25.207 18.561zM12.859 18.561L12.64 17.886 12.421 18.561 11.71 18.561 12.285 18.979 12.065 19.655 12.64 19.237 13.215 19.655 12.995 18.979 13.57 18.561zM13.106 21L13.325 21.676 14.036 21.676 13.461 22.093 13.68 22.769 13.106 22.351 12.531 22.769 12.751 22.093 12.176 21.676 12.886 21.676zM22.807 24.132L22.588 23.456 22.368 24.132 21.658 24.132 22.233 24.55 22.013 25.225 22.588 24.808 23.163 25.225 22.943 24.55 23.518 24.132zM15.598 12.691L15.817 13.367 16.528 13.367 15.953 13.784 16.173 14.46 15.598 14.042 15.023 14.46 15.243 13.784 14.668 13.367 15.378 13.367zM15.558 24.089L15.339 23.413 15.119 24.089 14.409 24.089 14.983 24.506 14.764 25.182 15.339 24.765 15.913 25.182 15.694 24.506 16.269 24.089z"/>
                                </g>
                            </g>
                        </g>
                    </g>
                </g>
            </g>
        </g>
    </g>
</svg>
